src/public/images/food.svg

<svg width="512" height="466" viewBox="0 0 512 466" fill="none" xmlns="http://www.w3.org/2000/svg">
<path d="M303.995 176.359C300.994 176.359 298.054 176.709 295.199 177.407C286.111 162.29 269.764 152.869 251.728 152.869C233.693 152.869 217.346 162.29 208.258 177.407C205.403 176.71 202.464 176.359 199.463 176.359C179.014 176.359 162.376 192.997 162.376 213.446C162.376 232.414 176.687 248.1 195.08 250.275L206.222 310.095C207.353 317.408 213.734 322.895 221.152 322.895H282.307C289.723 322.895 296.105 317.407 297.237 310.096L308.379 250.275C326.772 248.1 341.083 232.413 341.083 213.446C341.082 192.998 324.444 176.359 303.995 176.359ZM281.544 306.881H221.914L217.743 284.491H285.714L281.544 306.881ZM303.995 234.517C303.5 234.517 302.953 234.494 302.32 234.444C298.227 234.14 294.572 236.936 293.822 240.961L288.697 268.474H214.76L209.635 240.961C208.885 236.936 205.226 234.142 201.137 234.444C200.503 234.494 199.957 234.517 199.462 234.517C187.843 234.517 178.391 225.066 178.391 213.447C178.391 201.828 187.844 192.376 199.462 192.376C202.701 192.376 205.808 193.093 208.697 194.504C210.683 195.475 212.984 195.582 215.05 194.798C217.118 194.015 218.769 192.412 219.614 190.368C225.007 177.317 237.611 168.885 251.726 168.885C265.841 168.885 278.446 177.317 283.84 190.368C284.685 192.412 286.336 194.015 288.404 194.798C290.473 195.581 292.771 195.475 294.757 194.504C297.646 193.093 300.753 192.376 303.992 192.376C315.611 192.376 325.063 201.829 325.063 213.447C325.066 225.066 315.614 234.517 303.995 234.517V234.517Z" fill="#48811A"/>
<path d="M413.793 214.353C413.785 214.129 413.775 213.904 413.749 213.679C409.553 177.285 392.886 142.945 366.819 116.986C340.744 91.0193 306.322 74.4948 269.895 70.4555L264.337 64.8978C260.97 61.5312 256.492 59.6755 251.728 59.6755C246.965 59.6755 242.488 61.5302 239.12 64.8978L233.468 70.5505C233.098 70.542 232.726 70.5494 232.35 70.5943C195.88 74.9144 161.529 91.7518 135.624 118.005C109.956 144.019 93.6555 178.209 89.6365 214.382L84.0692 219.949C77.1182 226.901 77.1182 238.213 84.0692 245.164L89.6354 250.73C93.6886 287.216 110.208 321.627 136.242 347.731C162.381 373.941 196.92 390.584 233.557 394.651L239.12 400.213C242.487 403.581 246.965 405.436 251.728 405.436C256.492 405.436 260.969 403.582 264.337 400.214L269.906 394.646C306.226 390.609 340.504 374.219 366.566 348.378C392.954 322.212 409.738 287.544 413.826 250.76C413.827 250.747 413.827 250.735 413.828 250.724L419.389 245.163C426.34 238.211 426.34 226.9 419.389 219.948L413.793 214.353ZM355.517 128.334C373.891 146.632 387.085 169.542 393.779 194.339L289.955 90.5153C314.551 97.1567 337.293 110.185 355.517 128.334ZM147.583 336.421C129.379 318.169 116.339 295.417 109.691 270.785L213.505 374.599C188.743 367.916 165.882 354.771 147.583 336.421ZM251.728 389.42C251.387 389.42 250.886 389.328 250.447 388.888L95.3959 233.838C94.6891 233.133 94.6891 231.981 95.3959 231.276L165.287 161.385C168.414 158.257 168.414 153.187 165.287 150.059C162.158 146.933 157.088 146.933 153.961 150.059L109.694 194.326C116.276 169.953 129.121 147.401 147.025 129.255C165.402 110.631 188.489 97.2656 213.507 90.5132L174.616 129.405C171.488 132.533 171.488 137.603 174.616 140.731C177.744 143.857 182.814 143.856 185.941 140.731L250.446 76.2245C250.885 75.7857 251.386 75.6939 251.727 75.6939C252.07 75.6939 252.571 75.7857 253.01 76.2256L408.062 231.275C408.769 231.98 408.769 233.131 408.062 233.837L253.011 388.888C252.572 389.329 252.071 389.42 251.728 389.42V389.42ZM355.288 337.005C337.09 355.05 314.451 367.982 289.959 374.593L393.774 270.778C387.056 295.679 373.793 318.658 355.288 337.005V337.005Z" fill="#48811A"/>
<path d="M500.935 265.707V181.402C500.935 176.979 497.349 173.394 492.927 173.394C488.503 173.394 484.919 176.979 484.919 181.402V264.645H467.635V200.633C467.635 193.093 463.382 186.12 456.801 182.869C452.427 180.71 449.905 176.01 450.526 171.176L467.694 37.3755C468.246 33.0725 471.934 29.8276 476.271 29.8276C481.04 29.8276 484.919 33.7067 484.919 38.4753V149.37C484.919 153.793 488.503 157.378 492.927 157.378C497.349 157.378 500.935 153.793 500.935 149.37V38.4753C500.935 24.8764 489.871 13.8113 476.27 13.8113C463.899 13.8113 453.382 23.0655 451.807 35.3372L443.403 100.833C400.255 38.1368 328.682 0 251.73 0C186.526 0 125.413 26.8368 81.4554 74.1734V21.8195C81.4554 17.3958 77.871 13.8113 73.4473 13.8113C69.0236 13.8113 65.4392 17.3958 65.4392 21.8195V82.1441H48.7353V21.8195C48.7353 17.3958 45.1498 13.8113 40.7272 13.8113C36.3046 13.8113 32.7191 17.3958 32.7191 21.8195V82.1441H16.0162V21.8195C16.0162 17.3958 12.4307 13.8113 8.00812 13.8113C3.5855 13.8113 0 17.3958 0 21.8195V125.454C0 136.024 7.37709 144.904 17.2527 147.216V265.707C10.8046 268.094 6.18761 274.286 6.18761 281.553V408.312C6.18761 427.67 21.9369 443.418 41.2942 443.418H42.5274C61.8847 443.418 77.634 427.67 77.634 408.312V386.72C96.8652 408.387 120.15 426.501 145.853 439.666C178.817 456.55 214.439 465.112 251.728 465.112C327.03 465.112 397.145 428.626 440.554 368.341V408.312C440.554 427.67 456.302 443.418 475.66 443.418H476.893C496.252 443.418 512 427.67 512 408.312V281.553C512 274.286 507.382 268.094 500.935 265.707ZM61.6177 408.312C61.6177 418.838 53.0533 427.402 42.5274 427.402H41.2942C30.7672 427.402 22.2039 418.839 22.2039 408.312V281.553C22.2039 281.062 22.6043 280.661 23.0954 280.661H60.7261C61.2173 280.661 61.6177 281.062 61.6177 281.553V408.312ZM65.4381 125.454C65.4381 128.946 62.5979 131.786 59.1064 131.786C54.3901 131.786 50.5516 135.623 50.5516 140.341V264.646H33.269V142.707C33.269 136.685 28.3701 131.785 22.3469 131.785C18.8554 131.785 16.0152 128.945 16.0152 125.453V98.1593H65.4371V125.454H65.4381ZM451.619 265.707C445.171 268.094 440.554 274.286 440.554 281.553V338.614C402.177 406.796 329.959 449.096 251.728 449.096C217.002 449.096 183.838 441.127 153.154 425.41C123.876 410.414 97.9597 388.525 78.2041 362.109C78.0248 361.87 77.8336 361.646 77.635 361.433V281.553C77.635 274.286 73.017 268.094 66.5699 265.707V146.521C75.2347 143.443 81.4554 135.161 81.4554 125.454V98.5512C81.7982 98.2479 82.1239 97.9191 82.4186 97.5496C123.791 45.7349 185.502 16.0173 251.728 16.0173C329.691 16.0173 401.727 58.06 440.192 125.859L434.638 169.138C433.148 180.753 439.203 192.042 449.706 197.231C450.868 197.804 451.618 199.14 451.618 200.634V265.707H451.619ZM495.984 408.312C495.984 418.838 487.419 427.402 476.893 427.402H475.66C465.134 427.402 456.57 418.839 456.57 408.312V281.553C456.57 281.062 456.97 280.661 457.461 280.661H495.092C495.583 280.661 495.984 281.062 495.984 281.553V408.312Z" fill="#48811A"/>
</svg>

<svg xmlns="http://www.w3.org/2000/svg" width="512" height="466" fill="#48811a" xmlns:v="https://vecta.io/nano"><path d="M303.995 176.359c-3.001 0-5.941.35-8.796 1.048-9.088-15.117-25.435-24.538-43.471-24.538s-34.382 9.421-43.47 24.538c-2.855-.697-5.794-1.048-8.795-1.048-20.449 0-37.087 16.638-37.087 37.087 0 18.968 14.311 34.654 32.704 36.829l11.142 59.82a15.18 15.18 0 0 0 14.93 12.8h61.155c7.416 0 13.798-5.488 14.93-12.799l11.142-59.821c18.393-2.175 32.704-17.862 32.704-36.829-.001-20.448-16.639-37.087-37.088-37.087zm-22.451 130.522h-59.63l-4.171-22.39h67.971l-4.17 22.39zm22.451-72.364c-.495 0-1.042-.023-1.675-.073-4.093-.304-7.748 2.492-8.498 6.517l-5.125 27.513H214.76l-5.125-27.513c-.75-4.025-4.409-6.819-8.498-6.517-.634.05-1.18.073-1.675.073-11.619 0-21.071-9.451-21.071-21.07s9.453-21.071 21.071-21.071c3.239 0 6.346.717 9.235 2.128 1.986.971 4.287 1.078 6.353.294s3.719-2.386 4.564-4.43a34.64 34.64 0 0 1 32.112-21.483c14.115 0 26.72 8.432 32.114 21.483.845 2.044 2.496 3.647 4.564 4.43s4.367.677 6.353-.294c2.889-1.411 5.996-2.128 9.235-2.128 11.619 0 21.071 9.453 21.071 21.071s-9.449 21.07-21.068 21.07h0zm109.798-20.164l-.044-.674c-4.196-36.394-20.863-70.734-46.93-96.693-26.075-25.967-60.497-42.491-96.924-46.53l-5.558-5.558c-3.367-3.367-7.845-5.222-12.609-5.222a17.71 17.71 0 0 0-12.608 5.222l-5.652 5.653c-.37-.008-.742-.001-1.118.044-36.47 4.32-70.821 21.158-96.726 47.411-25.668 26.014-41.968 60.204-45.987 96.377l-5.567 5.567c-6.951 6.952-6.951 18.264 0 25.215l5.566 5.566c4.053 36.486 20.573 70.897 46.607 97.001 26.139 26.21 60.678 42.853 97.315 46.92l5.563 5.562a17.71 17.71 0 0 0 25.217.001l5.569-5.568c36.32-4.037 70.598-20.427 96.66-46.268 26.388-26.166 43.172-60.834 47.26-97.618.001-.013.001-.025.002-.036l5.561-5.561c6.951-6.952 6.951-18.263 0-25.215l-5.596-5.595zm-58.276-86.019c18.374 18.298 31.568 41.208 38.262 66.005L289.955 90.515c24.596 6.641 47.338 19.67 65.562 37.819zM147.583 336.421c-18.204-18.252-31.244-41.004-37.892-65.636l103.814 103.814c-24.762-6.683-47.623-19.828-65.922-38.178zm104.145 52.999c-.341 0-.842-.092-1.281-.532L95.396 233.838c-.707-.705-.707-1.857 0-2.562l69.891-69.891a8.01 8.01 0 0 0 0-11.326c-3.129-3.126-8.199-3.126-11.326 0l-44.267 44.267c6.582-24.373 19.427-46.925 37.331-65.071 18.377-18.624 41.464-31.989 66.482-38.742l-38.891 38.892a8.01 8.01 0 0 0 0 11.326c3.128 3.126 8.198 3.125 11.325 0l64.505-64.506a1.78 1.78 0 0 1 1.281-.531c.343 0 .844.092 1.283.532l155.052 155.049c.707.705.707 1.856 0 2.562L253.011 388.888c-.439.441-.94.532-1.283.532h0zm103.56-52.415c-18.198 18.045-40.837 30.977-65.329 37.588l103.815-103.815c-6.718 24.901-19.981 47.88-38.486 66.227h0zm145.647-71.298v-84.305a8.01 8.01 0 0 0-8.008-8.008 8.01 8.01 0 0 0-8.008 8.008v83.243h-17.284v-64.012c0-7.54-4.253-14.513-10.834-17.764-4.374-2.159-6.896-6.859-6.275-11.693l17.168-133.8a8.67 8.67 0 0 1 8.577-7.548 8.66 8.66 0 0 1 8.648 8.648V149.37a8.01 8.01 0 0 0 8.008 8.008 8.01 8.01 0 0 0 8.008-8.008V38.475c0-13.599-11.064-24.664-24.665-24.664-12.371 0-22.888 9.254-24.463 21.526l-8.404 65.496C400.255 38.137 328.682 0 251.73 0 186.526 0 125.413 26.837 81.455 74.173V21.82a8.01 8.01 0 0 0-8.008-8.008 8.01 8.01 0 0 0-8.008 8.008v60.325H48.735V21.82a8.01 8.01 0 0 0-8.008-8.008 8.01 8.01 0 0 0-8.008 8.008v60.325H16.016V21.82a8.01 8.01 0 0 0-8.008-8.008A8.01 8.01 0 0 0 0 21.82v103.634c0 10.57 7.377 19.45 17.253 21.762v118.491c-6.448 2.387-11.065 8.579-11.065 15.846v126.759c0 19.358 15.749 35.106 35.107 35.106h1.233c19.357 0 35.107-15.748 35.107-35.106V386.72c19.231 21.667 42.516 39.781 68.219 52.946 32.964 16.884 68.586 25.446 105.875 25.446 75.302 0 145.417-36.486 188.826-96.771v39.971c0 19.358 15.748 35.106 35.106 35.106h1.233c19.359 0 35.107-15.748 35.107-35.106V281.553c0-7.267-4.618-13.459-11.065-15.846zM61.618 408.312c0 10.526-8.564 19.09-19.09 19.09h-1.233c-10.527 0-19.09-8.563-19.09-19.09V281.553c0-.491.4-.892.892-.892h37.631c.491 0 .892.401.892.892v126.759zm3.82-282.858a6.34 6.34 0 0 1-6.332 6.332 8.57 8.57 0 0 0-8.555 8.555v124.305H33.269V142.707c0-6.022-4.899-10.922-10.922-10.922a6.34 6.34 0 0 1-6.332-6.332V98.159h49.422v27.295h.001zm386.181 140.253c-6.448 2.387-11.065 8.579-11.065 15.846v57.061c-38.377 68.182-110.595 110.482-188.826 110.482-34.726 0-67.89-7.969-98.574-23.686-29.278-14.996-55.194-36.885-74.95-63.301-.179-.239-.37-.463-.569-.676v-79.88c0-7.267-4.618-13.459-11.065-15.846V146.521c8.665-3.078 14.885-11.36 14.885-21.067V98.551a7.89 7.89 0 0 0 .963-1.002c41.372-51.815 103.083-81.532 169.309-81.532 77.963 0 149.999 42.043 188.464 109.842l-5.554 43.279a27.45 27.45 0 0 0 15.068 28.093c1.162.573 1.912 1.909 1.912 3.403v65.073h.001zm44.365 142.605c0 10.526-8.565 19.09-19.091 19.09h-1.233c-10.526 0-19.09-8.563-19.09-19.09V281.553c0-.491.4-.892.891-.892h37.631c.491 0 .892.401.892.892v126.759z"/></svg>
